X:1
T: Ellie's Jig
C:
R:Jig
Q:180
K:D
M:6/8
L:1/16
f2|d3AG2 F2D2F2|G3Bd2 e2c2A2|d4A2 F3GA2|G3FG2 E4c2|d3AG2 F2D2F2|B2Bcd2 e2c2A2|g3ag2 f2e2d2|Ad3c2 d4f2|
d3AG2 F2D2F2|G3Bd2 e2c2A2|d4A2 F3GA2|G3FG2 E4c2|d3AG2 F2D2F2|B2Bcd2 e2c2A2|g3ag2 f2e2d2|Ad3c2 d4f2|
a6 f3ed2|c2B2A2 d4A2|B4g2 f3ed2|c3dB2 A6|B3df2 g4e2|A3ce2 f4d2|B3dg2 f2e2d2|Ad3c2 d4f2|
a6 f3ed2|c2B2A2 d4A2|B4g2 f3ed2|c3dB2 A6|B3df2 g4e2|A3ce2 f4d2|B3dg2 f2e2d2|Ad3c2 d4||
